flaticon/education/diploma-1.svg

<svg xmlns="http://www.w3.org/2000/svg" width="32" height="32" viewBox="0 0 24 24">
    <path d="M 24 3.429688 C 24 2.039062 22.90625 0.960938 21.429688 0.863281 L 21.429688 0.855469 L 7.285156 0.855469 C 5.871094 0.855469 4.714844 2.015625 4.714844 3.429688 L 4.714844 17.144531 L 0 17.144531 L 0 20.570312 C 0 21.984375 1.027344 23.015625 2.570312 23.144531 L 16.285156 23.144531 C 17.957031 23.144531 19.285156 21.8125 19.285156 20.144531 L 19.285156 7.714844 L 24 7.714844 Z M 0.855469 20.570312 L 0.855469 18 L 13.714844 18 L 13.714844 20.570312 C 13.714844 21.25 13.953125 21.839844 14.371094 22.285156 L 2.613281 22.285156 C 1.585938 22.199219 0.855469 21.515625 0.855469 20.570312 Z M 18.429688 20.144531 C 18.429688 21.34375 17.484375 22.285156 16.328125 22.285156 C 15.300781 22.199219 14.570312 21.515625 14.570312 20.570312 L 14.570312 17.144531 L 5.570312 17.144531 L 5.570312 3.429688 C 5.570312 2.484375 6.34375 1.714844 7.285156 1.714844 L 19.109375 1.714844 C 19.050781 1.773438 19 1.835938 18.949219 1.898438 C 18.648438 2.273438 18.460938 2.75 18.433594 3.28125 C 18.433594 3.285156 18.433594 3.289062 18.433594 3.292969 C 18.429688 3.339844 18.429688 3.382812 18.429688 3.429688 Z M 23.144531 6.855469 L 19.285156 6.855469 L 19.285156 3.429688 C 19.285156 3.394531 19.285156 3.359375 19.289062 3.328125 C 19.289062 3.320312 19.289062 3.3125 19.289062 3.308594 C 19.292969 3.28125 19.292969 3.253906 19.296875 3.226562 C 19.296875 3.222656 19.296875 3.214844 19.300781 3.210938 C 19.300781 3.183594 19.304688 3.15625 19.308594 3.132812 C 19.3125 3.125 19.3125 3.121094 19.3125 3.117188 C 19.316406 3.089844 19.324219 3.0625 19.328125 3.039062 C 19.332031 3.03125 19.332031 3.027344 19.332031 3.023438 C 19.339844 3 19.34375 2.972656 19.351562 2.949219 C 19.355469 2.941406 19.355469 2.9375 19.359375 2.929688 C 19.367188 2.910156 19.371094 2.886719 19.378906 2.863281 C 19.382812 2.855469 19.386719 2.847656 19.390625 2.839844 C 19.398438 2.820312 19.402344 2.800781 19.414062 2.78125 C 19.417969 2.773438 19.421875 2.761719 19.425781 2.75 C 19.433594 2.734375 19.441406 2.722656 19.445312 2.707031 C 19.453125 2.691406 19.460938 2.675781 19.46875 2.664062 C 19.472656 2.652344 19.480469 2.644531 19.484375 2.636719 C 19.496094 2.617188 19.507812 2.597656 19.519531 2.578125 C 19.519531 2.574219 19.519531 2.574219 19.523438 2.570312 C 19.785156 2.152344 20.230469 1.890625 20.703125 1.773438 C 20.871094 1.734375 21.042969 1.714844 21.214844 1.714844 C 22.15625 1.714844 23.144531 2.3125 23.144531 3.429688 Z M 23.144531 6.855469"/>
    <path d="M7.714844 5.570312L12 5.570312C12.257812 5.570312 12.429688 5.398438 12.429688 5.144531 12.429688 4.886719 12.257812 4.714844 12 4.714844L7.714844 4.714844C7.457031 4.714844 7.285156 4.886719 7.285156 5.144531 7.285156 5.398438 7.457031 5.570312 7.714844 5.570312zM16.285156 12.429688L7.714844 12.429688C7.457031 12.429688 7.285156 12.601562 7.285156 12.855469 7.285156 13.113281 7.457031 13.285156 7.714844 13.285156L16.285156 13.285156C16.542969 13.285156 16.714844 13.113281 16.714844 12.855469 16.714844 12.601562 16.542969 12.429688 16.285156 12.429688zM8.570312 15L7.714844 15C7.457031 15 7.285156 15.171875 7.285156 15.429688 7.285156 15.6875 7.457031 15.855469 7.714844 15.855469L8.570312 15.855469C8.828125 15.855469 9 15.6875 9 15.429688 9 15.171875 8.828125 15 8.570312 15zM12.429688 15L11.144531 15C10.886719 15 10.714844 15.171875 10.714844 15.429688 10.714844 15.6875 10.886719 15.855469 11.144531 15.855469L12.429688 15.855469C12.6875 15.855469 12.855469 15.6875 12.855469 15.429688 12.855469 15.171875 12.6875 15 12.429688 15zM7.714844 10.714844L9 10.714844C9.257812 10.714844 9.429688 10.542969 9.429688 10.285156 9.429688 10.027344 9.257812 9.855469 9 9.855469L7.714844 9.855469C7.457031 9.855469 7.285156 10.027344 7.285156 10.285156 7.285156 10.542969 7.457031 10.714844 7.714844 10.714844zM16.285156 9.855469L11.570312 9.855469C11.3125 9.855469 11.144531 10.027344 11.144531 10.285156 11.144531 10.542969 11.3125 10.714844 11.570312 10.714844L16.285156 10.714844C16.542969 10.714844 16.714844 10.542969 16.714844 10.285156 16.714844 10.027344 16.542969 9.855469 16.285156 9.855469zM7.714844 8.144531L11.144531 8.144531C11.398438 8.144531 11.570312 7.972656 11.570312 7.714844 11.570312 7.457031 11.398438 7.285156 11.144531 7.285156L7.714844 7.285156C7.457031 7.285156 7.285156 7.457031 7.285156 7.714844 7.285156 7.972656 7.457031 8.144531 7.714844 8.144531zM16.285156 7.285156L13.714844 7.285156C13.457031 7.285156 13.285156 7.457031 13.285156 7.714844 13.285156 7.972656 13.457031 8.144531 13.714844 8.144531L16.285156 8.144531C16.542969 8.144531 16.714844 7.972656 16.714844 7.714844 16.714844 7.457031 16.542969 7.285156 16.285156 7.285156zM16.285156 7.285156"/>
</svg>

<svg xmlns="http://www.w3.org/2000/svg" width="32" height="32" viewBox="0 0 24 24">
    <path d="M24 3.43C24 2.04 22.906.96 21.43.863V.855H7.285a2.58 2.58 0 0 0-2.57 2.575v13.715H0v3.425c0 1.414 1.027 2.446 2.57 2.575h13.715c1.672 0 3-1.332 3-3V7.715H24zM.855 20.57V18h12.86v2.57c0 .68.238 1.27.656 1.715H2.613C1.586 22.2.855 21.515.855 20.57zm17.575-.425c0 1.199-.946 2.14-2.102 2.14-1.027-.086-1.758-.77-1.758-1.715v-3.425h-9V3.43a1.72 1.72 0 0 1 1.715-1.715H19.11a2.393 2.393 0 0 0-.676 1.566v.012c-.003.047-.003.09-.003.137zm4.715-13.29h-3.86V3.43c0-.035 0-.07.004-.102v-.02c.004-.027.004-.054.008-.081 0-.004 0-.012.004-.016a.48.48 0 0 1 .008-.078c.003-.008.003-.012.003-.016.004-.027.012-.054.016-.078.004-.008.004-.012.004-.016.008-.023.012-.05.02-.074l.007-.02c.008-.019.012-.042.02-.066l.012-.023c.007-.02.011-.04.023-.059l.012-.031c.008-.016.015-.027.02-.043.007-.016.015-.031.023-.043.004-.012.011-.02.015-.027l.036-.059c0-.004 0-.004.003-.008.262-.418.707-.68 1.18-.797.168-.039.34-.058.512-.058.941 0 1.93.597 1.93 1.715zm0 0"/>
    <path d="M7.715 5.57H12c.258 0 .43-.172.43-.425 0-.258-.172-.43-.43-.43H7.715c-.258 0-.43.172-.43.43 0 .253.172.425.43.425zm0 0M16.285 12.43h-8.57c-.258 0-.43.172-.43.425 0 .258.172.43.43.43h8.57c.258 0 .43-.172.43-.43 0-.253-.172-.425-.43-.425zm0 0M8.57 15h-.855c-.258 0-.43.172-.43.43s.172.425.43.425h.855c.258 0 .43-.168.43-.425 0-.258-.172-.43-.43-.43zm0 0M12.43 15h-1.285c-.258 0-.43.172-.43.43s.172.425.43.425h1.285c.258 0 .425-.168.425-.425 0-.258-.168-.43-.425-.43zm0 0M7.715 10.715H9c.258 0 .43-.172.43-.43s-.172-.43-.43-.43H7.715c-.258 0-.43.172-.43.43s.172.43.43.43zm0 0M16.285 9.855H11.57c-.258 0-.425.172-.425.43s.168.43.425.43h4.715c.258 0 .43-.172.43-.43s-.172-.43-.43-.43zm0 0M7.715 8.145h3.43c.253 0 .425-.172.425-.43s-.172-.43-.425-.43h-3.43c-.258 0-.43.172-.43.43s.172.43.43.43zm0 0M16.285 7.285h-2.57c-.258 0-.43.172-.43.43s.172.43.43.43h2.57c.258 0 .43-.172.43-.43s-.172-.43-.43-.43zm0 0"/>
</svg>
